public/avatar/body/232.svg

<svg xmlns:xlink="http://www.w3.org/1999/xlink" height="82" width="84.85" xmlns="http://www.w3.org/2000/svg"><g transform="translate(37.4 42.25)"><use height="38" transform="translate(-11.95 -17.45)" width="32.05" xlink:href="#a"/><use height="38.95" transform="translate(-12.45 -17.95)" width="33.05" xlink:href="#b"/><use height="22.55" transform="translate(-14.3 1.3)" width="37.1" xlink:href="#c"/></g><defs><path d="M27.35 7.4q2.15 4.15 3.55 8.75 1.45 4.7 1.15 9.5-.35 4.95-4.2 8.1-3.8 3.2-8.75 4.05l-2.6.2q-3.6 0-7.05-1.15-4.65-1.6-7.1-5.5Q-.2 27.4.05 23q.2-4.4 2-9.3Q3.85 8.75 7 5.05 10.1 1.3 14.7.1l1.8-.1q1.9.05 3.7.8 4.75 2.05 7.15 6.6" fill="#fff" fill-rule="evenodd" transform="translate(-.05)" id="d"/><path d="M27.35 7.4Q24.95 2.85 20.2.8 17.55-.3 14.7.1 10.1 1.3 7 5.05q-3.15 3.7-4.95 8.65-1.8 4.9-2 9.3-.25 4.4 2.3 8.35 2.45 3.9 7.1 5.5 4.65 1.55 9.65.95 4.95-.85 8.75-4.05 3.85-3.15 4.2-8.1.3-4.8-1.15-9.5-1.4-4.6-3.55-8.75Z" fill="none" stroke="#000" stroke-linecap="round" stroke-linejoin="round" transform="translate(.45 .5)" id="e"/><use height="38" width="32.05" xlink:href="#d" id="a"/><use height="38.95" width="33.05" xlink:href="#e" id="b"/><g id="c" fill-rule="evenodd"><path d="m19.85 2.2.55-.05q.35.15.25.5Q19.5 14.7 22.6 17l.2.35-.1.4q-.85 1.05-4.3 2.35-4 1.55-8.75 2.25-13.2 1.9-23.75-3.85l-.2-.35.05-.4q1.65-2.55 1.75-8.95l-.2-6 .25-.5q.25-.15.55 0Q-6.6 6 3.6 6.15q10.65.2 16.25-3.95" fill="#752020" transform="translate(14.3 -1.3)"/><path d="M19.6 3.55q-.6 6.5-.1 9.25.35 1.9 2.1 4.55-.75.95-4.15 2.1-3.9 1.4-8.5 1.95-12.85 1.65-22.15-3.6 1.5-2.7 1.7-8.7l-.15-5.45q5.25 3.2 15.2 3.4 10.45.2 16.05-3.5" fill="#fff" transform="translate(14.3 -1.3)"/><path d="M19.6 3.55q-.6 6.5-.1 9.25.35 1.9 2.1 4.55-1.85 2.2-10.5 3.7-10.65 1.9-19.4-1.1-1.3-2.7-4.2-3.75.7-2.3.85-5 2.4 1.7 5.5-.6 3-2.25 2.15-4.35l12.65.6q6.95-.65 10.95-3.3" fill="#fcf" transform="translate(14.3 -1.3)"/><path d="m20.2 12.2.4-.05.35.3q1 2.3.7 3-1.3 2.4-13.8 3.15-13.7.8-21.45-3.3l-.15-.15q-.7-.85-.35-2.25l.5-1.3.35-.25.35.1q4.2 2.6 17.15 2.8 12.7.15 15.95-2.05" fill="#752020" transform="translate(14.3 -1.3)"/><path d="M20.75 15q-1.1 2-12.95 2.6-13.1.6-20.75-3-.55-.7-.3-1.45l.35-.65q4.55 2.45 17.25 2.6 12.3.15 15.85-1.75l.55 1.65" fill="#fff" transform="translate(14.3 -1.3)"/><path d="m20.55 14.4.2.6q-1.1 2-12.95 2.6-13.1.6-20.75-3-.2-.3.1-.85 4.35 2.55 16.4 2.9 12.35.35 17-2.25" fill="#fcf" transform="translate(14.3 -1.3)"/><path d="m11.95 6.9.4.05.25.35 2.25 14.85q.1.45-.4.55-7 1.55-14.4 1-6.15-.45-6.75-1.3l-.05-.5q.2-.65 1.05-7 .85-6.5.8-7.5l.15-.4.35-.15 16.35.05" fill="#752020" transform="translate(14.3 -1.3)"/><path d="m11.65 7.9 2.15 13.9q-9.8 2.5-19.5 0Q-3.8 9.5-3.9 7.85q15.05.3 15.55.05" fill="#fff" transform="translate(14.3 -1.3)"/><path d="m11.7 8.15 2.1 13.65q-7 1.8-16.2.6l8.75-.3q4.85-.6 6.2-1.35-.35-6.3-1.4-12.6h.55l-.05-.25q1.55.2.05.25" fill="#fcf" transform="translate(14.3 -1.3)"/><path d="M19.9 4.8Q18.65 7.7 6.15 8.05-6.8 8.45-12 4.6q-.9-1.3-.05-1.6Q4.6 7.55 19.8 3.15l.25.35q.2.5-.15 1.3" fill="#fff" transform="translate(14.3 -1.3)"/><path d="M4.3 16.8q-5.75-.1-8.3-1.15 1.15-1.25 4.2-.95Q3 15 4.25 16q1.6-1.15 4.5-1.05 2.75.15 2.75 1.05-1.05 1-7.2.8" fill="#fcf" transform="translate(14.3 -1.3)"/><path d="M-10 15.8q0-1.85 1.35-3.2 1.4-1.3 3.3-1.3t3.25 1.3q1.35 1.35 1.35 3.2t-1.35 3.15q-1.35 1.3-3.25 1.3t-3.3-1.3Q-10 17.65-10 15.8" fill="#752020" transform="translate(14.3 -1.3)"/><path d="M-1.4 15.8q0 1.55-1.15 2.7-1.2 1.1-2.8 1.1-1.65 0-2.8-1.1-1.2-1.15-1.2-2.7 0-1.6 1.2-2.75 1.15-1.1 2.8-1.1 1.6 0 2.8 1.1Q-1.4 14.2-1.4 15.8" fill="#fff" transform="translate(14.3 -1.3)"/><path d="m-4.85 15.2 2.1-.05.05 1.25-2.05.1.15 1.95-1.6.1-.1-2.15-2.1.05-.1-1.1 2-.05-.1-2.1 1.6-.15.15 2.15" fill="#ce2020" transform="translate(14.3 -1.3)"/><path d="m3.15 5.8.4.15.15.4-.1 4.15q-.1.5-.55.5-10.5.3-15.55-4.95l-.2-.25q-.25-.55-.3-2.15l.15-2.05.35-.3.4.1Q-5.8 6 3.15 5.8" fill="#752020" transform="translate(14.3 -1.3)"/><path d="M2.55 9.9q-6.45.05-10.9-2.15l-3.45-2.5q-.6-1.6-.15-2.5 6.2 3.9 14.6 4.1l-.1 3.05" fill="#fff" transform="translate(14.3 -1.3)"/><path d="m2.65 6.85-.1 3.05q-6.45.05-10.9-2.15l-3.45-2.5-.2-.95q2.6 2.55 6.65 3.8Q-1.9 9.2 1 9L-.7 7.85l2.2.1-4.4-1.8 5.55.7" fill="#fcf" transform="translate(14.3 -1.3)"/><path d="m20.55 1.35.3.3L21 3.7q-.05 1.6-.3 2.15l-.15.2q-4.9 5.2-14.9 5-.5 0-.5-.45L5 6.4l.15-.4q.15-.15.4-.15 8.55.2 14.55-4.4l.45-.1" fill="#752020" transform="translate(14.3 -1.3)"/><path d="M20 2.8q.45.9-.15 2.5Q15.9 10.05 6.1 10l-.05-3.05Q14.1 6.7 20 2.8" fill="#fff" transform="translate(14.3 -1.3)"/><path d="M20 2.8q.45.9-.15 2.5Q15.9 10.05 6.1 10l-.05-1.45q4 .3 7.35-.85 3.8-1.3 4.75-3.85L20 2.8" fill="#fcf" transform="translate(14.3 -1.3)"/><path d="M6.15 10q.2.05-.1.95l-.85 1.7-.65.9q-.15.2-.4.2t-.45-.2l-.45-.65Q1.4 10.35 2.1 10.05l2.05 2.85 2-2.9" fill="#752020" transform="translate(14.3 -1.3)"/></g></defs></svg>

<?xml version="1.0" encoding="UTF-8" standalone="no"?>
<svg xmlns:xlink="http://www.w3.org/1999/xlink" height="82.0px" width="84.85px" xmlns="http://www.w3.org/2000/svg">
  <g transform="matrix(1.0, 0.0, 0.0, 1.0, 37.4, 42.25)">
    <use height="38.0" transform="matrix(1.0, 0.0, 0.0, 1.0, -11.95, -17.45)" width="32.05" xlink:href="#sprite0"/>
    <use height="38.95" transform="matrix(1.0, 0.0, 0.0, 1.0, -12.45, -17.95)" width="33.05" xlink:href="#sprite1"/>
    <use height="22.55" transform="matrix(1.0, 0.0, 0.0, 1.0, -14.3, 1.3)" width="37.1" xlink:href="#shape2"/>
  </g>
  <defs>
    <g id="sprite0" transform="matrix(1.0, 0.0, 0.0, 1.0, -0.05, 0.0)">
      <use height="38.0" transform="matrix(1.0, 0.0, 0.0, 1.0, 0.05, 0.0)" width="32.05" xlink:href="#shape0"/>
    </g>
    <g id="shape0" transform="matrix(1.0, 0.0, 0.0, 1.0, -0.05, 0.0)">
      <path d="M27.35 7.4 Q29.5 11.55 30.9 16.15 32.35 20.85 32.05 25.65 31.7 30.6 27.85 33.75 24.05 36.95 19.1 37.8 L16.5 38.0 Q12.9 38.0 9.45 36.85 4.8 35.25 2.35 31.35 -0.2 27.4 0.05 23.0 0.25 18.6 2.05 13.7 3.85 8.75 7.0 5.05 10.1 1.3 14.7 0.1 L16.5 0.0 Q18.4 0.05 20.2 0.8 24.95 2.85 27.35 7.4" fill="#ffffff" fill-rule="evenodd" stroke="none"/>
    </g>
    <g id="sprite1" transform="matrix(1.0, 0.0, 0.0, 1.0, 0.45, 0.5)">
      <use height="38.95" transform="matrix(1.0, 0.0, 0.0, 1.0, -0.45, -0.5)" width="33.05" xlink:href="#shape1"/>
    </g>
    <g id="shape1" transform="matrix(1.0, 0.0, 0.0, 1.0, 0.45, 0.5)">
      <path d="M27.35 7.4 Q24.95 2.85 20.2 0.8 17.55 -0.3 14.7 0.1 10.1 1.3 7.0 5.05 3.85 8.75 2.05 13.7 0.25 18.6 0.05 23.0 -0.2 27.4 2.35 31.35 4.8 35.25 9.45 36.85 14.1 38.4 19.1 37.8 24.05 36.95 27.85 33.75 31.7 30.6 32.05 25.65 32.35 20.85 30.9 16.15 29.5 11.55 27.35 7.4 Z" fill="none" stroke="#000000" stroke-linecap="round" stroke-linejoin="round" stroke-width="1.0"/>
    </g>
    <g id="shape2" transform="matrix(1.0, 0.0, 0.0, 1.0, 14.3, -1.3)">
      <path d="M19.85 2.2 L20.4 2.15 Q20.75 2.3 20.65 2.65 19.5 14.7 22.6 17.0 L22.8 17.35 22.7 17.75 Q21.85 18.8 18.4 20.1 14.4 21.65 9.65 22.35 -3.55 24.25 -14.1 18.5 L-14.3 18.15 -14.25 17.75 Q-12.6 15.2 -12.5 8.8 L-12.7 2.8 -12.45 2.3 Q-12.2 2.15 -11.9 2.3 -6.6 6.0 3.6 6.15 14.25 6.35 19.85 2.2" fill="#752020" fill-rule="evenodd" stroke="none"/>
      <path d="M19.6 3.55 Q19.0 10.05 19.5 12.8 19.85 14.7 21.6 17.35 20.85 18.3 17.45 19.45 13.55 20.85 8.95 21.4 -3.9 23.05 -13.2 17.8 -11.7 15.1 -11.5 9.1 L-11.65 3.65 Q-6.4 6.85 3.55 7.05 14.0 7.25 19.6 3.55" fill="#ffffff" fill-rule="evenodd" stroke="none"/>
      <path d="M19.6 3.55 Q19.0 10.05 19.5 12.8 19.85 14.7 21.6 17.35 19.75 19.55 11.1 21.05 0.45 22.95 -8.3 19.95 -9.6 17.25 -12.5 16.2 -11.8 13.9 -11.65 11.2 -9.25 12.9 -6.15 10.6 -3.15 8.35 -4.0 6.25 L8.65 6.85 Q15.6 6.2 19.6 3.55" fill="#ffccff" fill-rule="evenodd" stroke="none"/>
      <path d="M20.2 12.2 L20.6 12.15 20.95 12.45 Q21.95 14.75 21.65 15.45 20.35 17.85 7.85 18.6 -5.85 19.4 -13.6 15.3 L-13.75 15.15 Q-14.45 14.3 -14.1 12.9 L-13.6 11.6 -13.25 11.35 -12.9 11.45 Q-8.7 14.05 4.25 14.25 16.95 14.4 20.2 12.2" fill="#752020" fill-rule="evenodd" stroke="none"/>
      <path d="M20.75 15.0 Q19.65 17.0 7.8 17.6 -5.3 18.2 -12.95 14.6 -13.5 13.9 -13.25 13.15 L-12.9 12.5 Q-8.35 14.95 4.35 15.1 16.65 15.25 20.2 13.35 L20.75 15.0" fill="#ffffff" fill-rule="evenodd" stroke="none"/>
      <path d="M20.55 14.4 L20.75 15.0 Q19.65 17.0 7.8 17.6 -5.3 18.2 -12.95 14.6 -13.15 14.3 -12.85 13.75 -8.5 16.3 3.55 16.65 15.9 17.0 20.55 14.4" fill="#ffccff" fill-rule="evenodd" stroke="none"/>
      <path d="M11.95 6.9 L12.35 6.95 12.6 7.3 14.85 22.15 Q14.95 22.6 14.45 22.7 7.45 24.25 0.05 23.7 -6.1 23.25 -6.7 22.4 L-6.75 21.9 Q-6.55 21.25 -5.7 14.9 -4.85 8.4 -4.9 7.4 L-4.75 7.0 -4.4 6.85 11.95 6.9" fill="#752020" fill-rule="evenodd" stroke="none"/>
      <path d="M11.65 7.9 L13.8 21.8 Q4.0 24.3 -5.7 21.8 -3.8 9.5 -3.9 7.85 11.15 8.15 11.65 7.9" fill="#ffffff" fill-rule="evenodd" stroke="none"/>
      <path d="M11.7 8.15 L13.8 21.8 Q6.8 23.6 -2.4 22.4 L6.35 22.1 Q11.2 21.5 12.55 20.75 12.2 14.45 11.15 8.15 L11.7 8.15 11.65 7.9 Q13.2 8.1 11.7 8.15" fill="#ffccff" fill-rule="evenodd" stroke="none"/>
      <path d="M19.9 4.8 Q18.65 7.7 6.15 8.05 -6.8 8.45 -12.0 4.6 -12.9 3.3 -12.05 3.0 4.6 7.55 19.8 3.15 L20.05 3.5 Q20.25 4.0 19.9 4.8" fill="#ffffff" fill-rule="evenodd" stroke="none"/>
      <path d="M4.3 16.8 Q-1.45 16.7 -4.0 15.65 -2.85 14.4 0.2 14.7 3.0 15.0 4.25 16.0 5.85 14.85 8.75 14.95 11.5 15.1 11.5 16.0 10.45 17.0 4.3 16.8" fill="#ffccff" fill-rule="evenodd" stroke="none"/>
      <path d="M-10.0 15.8 Q-10.0 13.95 -8.65 12.6 -7.25 11.3 -5.35 11.3 -3.45 11.3 -2.1 12.6 -0.75 13.95 -0.75 15.8 -0.75 17.65 -2.1 18.95 -3.45 20.25 -5.35 20.25 -7.25 20.25 -8.65 18.95 -10.0 17.65 -10.0 15.8" fill="#752020" fill-rule="evenodd" stroke="none"/>
      <path d="M-1.4 15.8 Q-1.4 17.35 -2.55 18.5 -3.75 19.6 -5.35 19.6 -7.0 19.6 -8.15 18.5 -9.35 17.35 -9.35 15.8 -9.35 14.2 -8.15 13.05 -7.0 11.95 -5.35 11.95 -3.75 11.95 -2.55 13.05 -1.4 14.2 -1.4 15.8" fill="#ffffff" fill-rule="evenodd" stroke="none"/>
      <path d="M-4.85 15.2 L-2.75 15.15 -2.7 16.4 -4.75 16.5 -4.6 18.45 -6.2 18.55 -6.3 16.4 -8.4 16.45 -8.5 15.35 -6.5 15.3 -6.6 13.2 -5.0 13.05 -4.85 15.2" fill="#ce2020" fill-rule="evenodd" stroke="none"/>
      <path d="M3.15 5.8 L3.55 5.95 3.7 6.35 3.6 10.5 Q3.5 11.0 3.05 11.0 -7.45 11.3 -12.5 6.05 L-12.7 5.8 Q-12.95 5.25 -13.0 3.65 L-12.85 1.6 -12.5 1.3 -12.1 1.4 Q-5.8 6.0 3.15 5.8" fill="#752020" fill-rule="evenodd" stroke="none"/>
      <path d="M2.55 9.9 Q-3.9 9.95 -8.35 7.75 L-11.8 5.25 Q-12.4 3.65 -11.95 2.75 -5.75 6.65 2.65 6.85 L2.55 9.9" fill="#ffffff" fill-rule="evenodd" stroke="none"/>
      <path d="M2.65 6.85 L2.55 9.9 Q-3.9 9.95 -8.35 7.75 L-11.8 5.25 -12.0 4.3 Q-9.4 6.85 -5.35 8.1 -1.9 9.2 1.0 9.0 L-0.7 7.85 1.5 7.95 -2.9 6.15 2.65 6.85" fill="#ffccff" fill-rule="evenodd" stroke="none"/>
      <path d="M20.55 1.35 L20.85 1.65 21.0 3.7 Q20.95 5.3 20.7 5.85 L20.55 6.05 Q15.65 11.25 5.65 11.05 5.15 11.05 5.15 10.6 L5.0 6.4 5.15 6.0 Q5.3 5.85 5.55 5.85 14.1 6.05 20.1 1.45 L20.55 1.35" fill="#752020" fill-rule="evenodd" stroke="none"/>
      <path d="M20.0 2.8 Q20.45 3.7 19.85 5.3 15.9 10.05 6.1 10.0 L6.05 6.95 Q14.1 6.7 20.0 2.8" fill="#ffffff" fill-rule="evenodd" stroke="none"/>
      <path d="M20.0 2.8 Q20.45 3.7 19.85 5.3 15.9 10.05 6.1 10.0 L6.05 8.55 Q10.05 8.85 13.4 7.7 17.2 6.4 18.15 3.85 L20.0 2.8" fill="#ffccff" fill-rule="evenodd" stroke="none"/>
      <path d="M6.15 10.0 Q6.35 10.05 6.05 10.95 L5.2 12.65 4.55 13.55 Q4.4 13.75 4.15 13.75 3.9 13.75 3.7 13.55 L3.25 12.9 Q1.4 10.35 2.1 10.05 L4.15 12.9 6.15 10.0" fill="#752020" fill-rule="evenodd" stroke="none"/>
    </g>
  </defs>
</svg>
